!!!OTL: Die beiden Waisenkinder
!!!OTL-incipit:Es gingen zwei Waisenkinder
!!!ARE: Europa, Mitteleuropa, Deutschland (BRD), Rheinland
!!!YOR: 5, S. 310
!!    1924 gedruckt in Moenchengladbach
!!!SCT: Q0118D
!!!TXL: @@DE
!!!YEM: Copyright 1995, estate of Helmut Schaffrath.
**kern	**text
*ICvox	*
*M6/8	*
*k[f#]	*
*G:	*
!LO:TX:a:t=H Rheinland	!
{8b	Es
=1	=1
8.bL	gin-
16b	-gen
8bJ	ʒwei
4b	Wai-
8b	-sen-
=2	=2
8ccL	-kin-
8ccJ	-der
8r	.
4r}	.
{8a	ʒum
=3	=3
4a	stil-
8dd	-len
4dd	Fried-
8cc	-hof
=4	=4
4b	hin,
8r}	.
{4.dd	sie
=5	=5
8.bL	knie-
16b	-ten
8bJ	am
8bL	Grabe
8cc	.
8ddJ	der
=6	=6
4.ee	Mut-
(8eeL	-ter
8dd)}	.
{8ccJ	und
=7	=7
4dd	wein-
8dd	-ten
4dd	bit-
8cc	-ter-
=8	=8
4b	-lich.
8r}	.
{4.dd	sie
=9	=9
8.bL	knie-
16b	-ten
8bJ	am
8bL	Grabe
8cc	.
8ddJ	der
=10	=10
4.ee	Mut-
(8eeL	-ter
8dd)}	.
{8ccJ	und
=11	=11
4dd	wein-
8dd	-ten
4dd	bit-
8cc	-ter-
=12	=12
4b	-lich.
4.r}	.
==	==
!!!AGN: Ballade, Waise, boese Stiefmutter, Klage am Grab, Geist
!! Zweistimmig notiert, Oberstimme kodiert. Schlusspause ergaenzt.
!!!ONB: ESAC (Essen Associative Code) Database: BALLADE
!!!AMT: compound duple
!!!AIN: vox
!!!EED: Helmut Schaffrath
!!!EEV: 1.0
!!!source: Deutsche Volkslieder mit ihren Melodien Balladen. Herausgegeben vom Deutschen Volksliedarchiv. Fünfter Teil. Freiburg/Breisgau 1965.
!!!page: 310
!!!ENC: Anna Maria Matuszewska
!!!EEV: 2025/03/05
*-	*-
